X:79
T:Duke of Glosters March. JJo.079
S:J.Jones MS,1801,N.Shrops.
N:This tune iscalled “The Shay Driver” in William Clarke of Feltwell’s MS
N:dated around 1858.
A:N Shropshire
Z:Neil Brookes 2006
M:4/4
L:1/8
Q:1/4=160
K:C
e>f|g>fc>c c3e|d>cB>A G>FE>D|E>G c>B A>fd>c|B2 G>GG2 e>f|!
g>fc>c c3e|d>cB>A G>FE>D|E>G c>B A>fd>B|c2c>cc2::!
e>f|g>fg>a b>ga>b|a>gf>e f2ag|a>gf>e d>cB>A|B>cB>A G>FE>D|!
E>G c>G F>A d>A|B>df>B c>eg>e|a>fA>f e>dc>B|c2c>cc2:|

